app/dist/common/images/kajima.svg

<svg height="18" viewBox="0 0 18 18" width="18" xmlns="http://www.w3.org/2000/svg"><path d="m0 0h18v18h-18z" fill="#f0f3fa"/><path d="m7 8h-2v5h2zm3 0h-2v5h2zm-3-3h-2v2h2zm4.9 0h-3.9v2h2.42c.55 0 .58.27.58.57v5.43h2v-6.9a1.1 1.1 0 0 0 -1.1-1.1z" fill="#e6002d"/></svg>

<!-- by TradingView --><svg xmlns="http://www.w3.org/2000/svg" width="18" height="18" viewBox="0 0 18 18"><path fill="#F0F3FA" d="M0 0h18v18H0z"/><path d="M7 8H5v5h2V8Zm3 0H8v5h2V8ZM7 5H5v2h2V5Zm4.9 0H8v2h2.42c.55 0 .58.27.58.57V13h2V6.1A1.1 1.1 0 0 0 11.9 5Z" fill="#E6002D"/></svg>
